src/pos-icons/water-boiler-alert.svg

<svg height="24" viewBox="0 0 24 24" width="24" xmlns="http://www.w3.org/2000/svg"><path d="m6 2c-1.11 0-2 .89-2 2v12c0 1.11.89 2 2 2h1v2h-3v2h3c1.11 0 2-.89 2-2v-2h2v2c0 1.11.89 2 2 2h3v-2h-3v-2h1c1.11 0 2-.89 2-2v-12c0-1.11-.89-2-2-2zm4 2.97c1.11 0 2 .9 2 2s-.89 2-2 2c-1.1 0-2-.9-2-2s.9-2 2-2m-2 9.53h4v1.5h-4zm10 .5h2v2h-2zm0-8h2v6h-2z"/></svg>

<?xml version="1.0" encoding="UTF-8"?><!DOCTYPE svg PUBLIC "-//W3C//DTD SVG 1.1//EN" "http://www.w3.org/Graphics/SVG/1.1/DTD/svg11.dtd"><svg xmlns="http://www.w3.org/2000/svg" xmlns:xlink="http://www.w3.org/1999/xlink" version="1.1" id="mdi-water-boiler-alert" width="24" height="24" viewBox="0 0 24 24"><path d="M6 2C4.89 2 4 2.89 4 4V16C4 17.11 4.89 18 6 18H7V20H4V22H7C8.11 22 9 21.11 9 20V18H11V20C11 21.11 11.89 22 13 22H16V20H13V18H14C15.11 18 16 17.11 16 16V4C16 2.89 15.11 2 14 2H6M10 4.97C11.11 4.97 12 5.87 12 6.97S11.11 8.97 10 8.97C8.9 8.97 8 8.07 8 6.97C8 5.87 8.9 4.97 10 4.97M8 14.5H12V16H8V14.5M18 15H20V17H18V15M18 7H20V13H18V7Z" /></svg>
